X:1
T:Title
%%score { ( 1 4 ) | ( 2 3 ) }
L:1/8
M:6/8
K:F
V:1 treble nm="Grand Piano"
V:4 treble 
V:2 bass 
V:3 bass 
V:1
 z3 z2[Q:1/4=100] [A,C] | [A,C]DE F2 G | A2 F [EG]3 | [EG][EG][EG] [Ec]2 [GB] | %4
 [FA]3- [FA]2 [A,C] | [A,C]DE F2 G | A2 F [EG]3 | [EG][EG][EG] [FA]2 [EG] | F3- F2 [FA] | %9
 [EG]2 [FA] [GB]2 [EG] | [FA]2 [GB] [Ac]2 [Ac] | [Bd]2 [Bd] [Ac]2 [FA] | [GB]2 [FA] [EG]2 C | %13
 [A,F]2 [CG] [FA]2 [GB] | [Ac]2 [FA] [Bd]3 | [Ac]2 [FA] [FA]2 [EG] |[M:5/8] F-F- F3 | %17
[M:3/4] [EG][EG] [FA] [GB]2 [EG] | A3 c3 | [Fd][Fd] [Fd] [Fc]2 [CFA] | [CEG]4- [CEG]C | %21
 [CF]2 [CEG] [CFA]2 [CFA] |[M:7/8] [B,FB]2 [Ac] [Bd]3 [Bd] |[M:3/4] [Ac]2 [GB][A,FA] [A,F][B,EG] | %24
[M:5/8] [A,F]-[A,F]- [A,F]3 |[M:4/4] [CAc]4 [CGB]2 [EG]2 | [A,F]4 [CEG]4 | [A,CFA]6 [CAc]2 | %28
 [Af]3 [Fce] [Bd]2 [Ac]2 | [Ac]3 A A2 c2 | [GB]3 A B2 [B,EG]2 | %31
[M:7/8] [A,F]-[A,F]-[A,F]- [A,F]3 z |] %32
V:2
 z3 z2 F, | z B,[F,B,] [F,A,]2 [E,C] | [F,C]2 D, C,3 | C,C,C, C,2 C, | F,3- F,2 F, | %5
 z B,[F,B,] [F,A,]2 [E,C] | [F,C]2 D, C,3 | C,C,C, C,2 C, | F,3- F,2 F, | C,2 C, C,2 C, | %10
 F,2 F, F,2 F, | B,,2 B,, F,2 F, | E,2 F, C,2 F, | F,2 F, F,2 F, | F,2 F, B,,3 | C,2 C, C,2 C, | %16
[M:5/8] F,-F,- F,3 |[M:3/4] [C,C][C,C] [C,C] [C,C]2 [C,C] | F3 A3 | %19
 [B,,B,][B,,B,] [B,,B,] [F,A,]2 F, | C,4- C,C, | A,,2 C, F,2 F, |[M:7/8] D,2 F, [B,,F,]3 [B,,F,] | %23
[M:3/4] [C,F,]2 [C,G,]C, C,C, |[M:5/8] F,-F,- F,3 |[M:4/4] F,4 z2 B,2 | D,4 C,4 | F,6 F,2 | %28
 [F,C]4[K:treble] [F,F]2 [F,F]2 | [F,F]3 [F,CF] F2 A2 | z2 z[K:treble] F G2[K:bass] C,2 | %31
[M:7/8] F,-F,-F,- F,3 z |] %32
V:3
 x6 | .F,3 z3 | x6 | x6 | x6 | .F,3 z3 | x6 | x6 | x6 | x6 | x6 | x6 | x6 | x6 | x6 | x6 | %16
[M:5/8] x5 |[M:3/4] x6 | [F,C]6 | x6 | x6 | x6 |[M:7/8] x7 |[M:3/4] x6 |[M:5/8] x5 | %25
[M:4/4] z4 C,4 | x8 | x8 | x4[K:treble] x4 | z4 [F,C]4 | C,6[K:treble][K:bass] z2 |[M:7/8] x7 |] %32
V:4
 x6 | x6 | x6 | x6 | x6 | x6 | x6 | x6 | x6 | x6 | x6 | x6 | x6 | x6 | x6 | x6 |[M:5/8] x5 | %17
[M:3/4] x6 | x6 | x6 | x6 | x6 |[M:7/8] x7 |[M:3/4] x6 |[M:5/8] x5 |[M:4/4] x8 | x8 | x8 | x8 | %29
 x8 | C6 z2 |[M:7/8] x7 |] %32

